X: 1725
T: the Dublin Hornpipe   #2
R: hornpipe, reel
%S: s:3 b:16(4+4+4+4)
B: O'Neill's 1850 #1725
O: F.O'Neill
Z: Bob Safranek, rjs@gsp.org
Z: A. LEE WORMAN
Z: Compacted via repeats and multiple endings for 1st strain [JC]
M: C|
L: 1/8
K: G
"^A"[|] dc !segno!|:\
BGDG cAFD | d^cde dBGD |\
[1,3 EdcB AGFG | (3ABG (3FGE Dcdc :|
[2,4 EdcB AGFA | G>B (3def g2 :|\
ga "^B"|: b>g (3ggg dgBg | b>g (3ggg dgBg |
c'>a (3aaa eaca | c'>a (3aaa eaca |\
b>g (3ggg dgBg | b>g (3ggg df b2 |
[1 (3aba (3gag (3fgf (3efe | (3ded (3cdc (3BcB ga :|\
[2 agfa gfec | (3ddd ef Hged!segno!c |]
